X:1
T:Tally Hall Internet Show Intro
T:Tally Hall Internet Show Intro
%%score 1 2
L:1/8
Q:1/4=187
M:4/4
K:G
V:1 treble nm="Square Synthesizer" snm="Synth."
V:2 treble nm="Piano" snm="Pno."
V:1
|:"^Presto""^Presto" ._E.E z .E z .E.F z | ._A2 z2 z4 | .A.A z .A z .A.G z | .F2 z z .F.E ._E2 :| %4
 z8 |] z8 | z8 | z8 | z8 | z z z2 z4 | z8 | z8 | z8 | z8 | z8 | z8 | z8 | z8 | z8 | z8 | z8 | z8 | %22
 z8 | z8 | z8 | z8 | z8 | z8 | z8 | z8 | z8 | z8 |] %32
V:2
|: ._E.E z .E z .E.F z | ._A2 z2 z4 | .A.A z .A z .A.G z | .F2 z z .F.E ._E2 :| z8 |] z8 | z8 | %7
 z8 | z8 | z z z2 z4 | z8 | z8 | z8 | z8 | z8 | z8 | z8 | z8 | z8 | z8 | z8 | z8 | z8 | z8 | z8 | %25
 z8 | z8 | z8 | z8 | z8 | z8 | z8 |] %32

